assets/logo-dark.svg

<svg fill="none" height="130" viewBox="0 0 130 130" width="130" xmlns="http://www.w3.org/2000/svg"><g fill="#e9e8eb"><g clip-rule="evenodd" fill-rule="evenodd"><path d="m75.2368 49.8947h-22.421v6.6362c0-1.6012 1.298-2.8992 2.8993-2.8992h13.9165c6.1914 0 11.2105 5.0191 11.2105 11.2105s-5.0191 11.2105-11.2105 11.2105h-13.9165c-1.6013 0-2.8993-1.298-2.8993-2.8993v6.6361h22.421c8.2553 0 14.9474-6.6922 14.9474-14.9474s-6.6922-14.9474-14.9474-14.9474z"/><path d="m75.2368 79.7894h-22.421v6.6362c0-1.6012 1.298-2.8992 2.8993-2.8992h13.9165c6.1914 0 11.2105 5.0191 11.2105 11.2105 0 6.1911-5.0191 11.2101-11.2105 11.2101h-13.9165c-1.6013 0-2.8993-1.298-2.8993-2.899v6.636h22.421c8.2553 0 14.9474-6.692 14.9474-14.9472s-6.6922-14.9474-14.9474-14.9474z"/><path d="m75.2368 20h-22.421v6.6362c0-1.6012 1.298-2.8993 2.8993-2.8993h13.9165c6.1914 0 11.2105 5.0192 11.2105 11.2106s-5.0191 11.2105-11.2105 11.2105h-13.9165c-1.6013 0-2.8993-1.2981-2.8993-2.8993v6.636h22.421c8.2553 0 14.9474-6.6921 14.9474-14.9473s-6.6922-14.9474-14.9474-14.9474z"/></g><path d="m40.0879 23.0658c-1.8915-.275-1.6897-3.0658.2217-3.0658h12.5062v89.684h-12.5062c-1.9114 0-2.1132-2.791-.2217-3.066 1.5148-.22 2.6384-1.519 2.6384-3.049v-5.0953-11.2105-22.4211-22.421-11.2106-5.0949c0-1.5308-1.1236-2.8296-2.6384-3.0498z"/><circle cx="103.263" cy="98.4738" r="3.73684"/></g></svg>

<svg width="130" height="130" viewBox="0 0 130 130" fill="none" xmlns="http://www.w3.org/2000/svg">
<path fill-rule="evenodd" clip-rule="evenodd" d="M75.2368 49.8947H52.8158V56.5309C52.8158 54.9297 54.1138 53.6317 55.7151 53.6317H69.6316C75.823 53.6317 80.8421 58.6508 80.8421 64.8422C80.8421 71.0336 75.823 76.0527 69.6316 76.0527H55.7151C54.1138 76.0527 52.8158 74.7547 52.8158 73.1534V79.7895H75.2368C83.4921 79.7895 90.1842 73.0973 90.1842 64.8421C90.1842 56.5869 83.492 49.8947 75.2368 49.8947Z" fill="#E9E8EB"/>
<path fill-rule="evenodd" clip-rule="evenodd" d="M75.2368 79.7894H52.8158V86.4256C52.8158 84.8244 54.1138 83.5264 55.7151 83.5264H69.6316C75.823 83.5264 80.8421 88.5455 80.8421 94.7369C80.8421 100.928 75.823 105.947 69.6316 105.947H55.7151C54.1138 105.947 52.8158 104.649 52.8158 103.048V109.684H75.2368C83.4921 109.684 90.1842 102.992 90.1842 94.7368C90.1842 86.4816 83.492 79.7894 75.2368 79.7894Z" fill="#E9E8EB"/>
<path fill-rule="evenodd" clip-rule="evenodd" d="M75.2368 20H52.8158V26.6362C52.8158 25.035 54.1138 23.7369 55.7151 23.7369H69.6316C75.823 23.7369 80.8421 28.7561 80.8421 34.9475C80.8421 41.1389 75.823 46.158 69.6316 46.158H55.7151C54.1138 46.158 52.8158 44.8599 52.8158 43.2587V49.8947H75.2368C83.4921 49.8947 90.1842 43.2026 90.1842 34.9474C90.1842 26.6922 83.492 20 75.2368 20Z" fill="#E9E8EB"/>
<path d="M40.0879 23.0658C38.1964 22.7908 38.3982 20 40.3096 20H52.8158V109.684H40.3096C38.3982 109.684 38.1964 106.893 40.0879 106.618C41.6027 106.398 42.7263 105.099 42.7263 103.569V98.4737V87.2632V64.8421V42.4211V31.2105V26.1156C42.7263 24.5848 41.6027 23.286 40.0879 23.0658Z" fill="#E9E8EB"/>
<circle cx="103.263" cy="98.4738" r="3.73684" fill="#E9E8EB"/>
</svg>
